src/symbolic/status/arch-uptodate-symbolic.svg

<svg xmlns="http://www.w3.org/2000/svg" width="16" height="16"><path d="M8 1C6.175 2.725 3 4 2 4.25 2 9 4.25 14.25 8 15c3.75-.75 6-6 6-10.75C13 4 9.825 2.725 8 1zm3 5l1 1-4 4-3-3 1-1 2 2 3-3z" fill="#444"/></svg>

<svg xmlns="http://www.w3.org/2000/svg" width="16" height="16" version="1.1">
 <path style="fill:#444444" d="M 8 1 C 6.175 2.725 3 4 2 4.25 C 2 9 4.25 14.25 8 15 C 11.75 14.25 14 9 14 4.25 C 13 4 9.825 2.725 8 1 z M 11 6 L 12 7 L 8 11 L 5 8 L 6 7 L 8 9 L 11 6 z"/>
</svg>
